X: 1
T: Bruramarsj fr\aa Innherad
T: Bride's march from Innherad
Z: 2009 John Chambers <jc@trillian.mit.edu>
M: 2/4
L: 1/8
K: G
B \
|: "G"d3 e | "D7"d>B c>A | "G"G4 | D4 \
| G>F GA | BG (3dcB | "D7"B>A A>^G | Ae dc |
| "G"c>B B>B | Bd "D7"ef | "Em"g4 | "D7"f4 \
| "A7"e>f ge | d^c/d/ e^c | "D"d2 d>d |1 dc Bc :|2 dD "G"GB ||
|: "G"d2 d>e | d^c/d/ ed | "D7"c3 B | AD FA \
| c2 c>d | cB/c/ dc | "G"B3 A | G3 G | "C"e2 ed/e/ | "D7"f2 fe/f/ |
| "G"g2 g>g | g3 e | dg dc | BA/B/ "D7"cA \
| "G"GF/G/ "D7"AF |  "G"G2 G>G |1 GD GB :|2  G3 |]
